icons/phone.svg

<svg xmlns="http://www.w3.org/2000/svg" width="24" height="24" viewBox="0 0 24 24">
  <path d="M4.53698851,2.72557174 L3.83076596,3.42699846 C3.70163543,3.55693429 3.5602189,3.70023139 3.37131846,3.8921175 C0.494771099,6.77065374 2.37931504,12.7263137 6.8307923,17.1829136 C11.2855072,21.6427548 17.2407102,23.5228838 20.1400025,20.6218861 L20.570887,20.2018152 C20.8442186,19.931959 21.088422,19.6837149 21.2958246,19.4644644 C22.2284135,18.4786001 22.2805527,16.8131804 21.2899358,15.7837088 L21.110318,15.6059299 C20.5516933,15.0758744 19.5634863,14.3156828 17.9654826,13.1679269 C17.2352865,12.6434682 16.244883,12.6706803 15.5445866,13.2344428 L15.426546,13.3363969 C15.3628112,13.3939871 15.2827931,13.469121 15.1814775,13.5664955 L14.1170267,14.6150514 C14.1105712,14.6214962 14.0850826,14.6242715 13.7344146,14.4889275 C13.0831518,14.2375657 12.2239218,13.6144571 11.312837,12.7023239 C10.4004767,11.7889137 9.77767327,10.9286735 9.52648794,10.27686 L9.41567483,9.97445115 C9.39350036,9.90669162 9.39497583,9.89796778 9.39629956,9.89664393 L10.4199374,8.85068039 C10.5977575,8.66517843 10.7359099,8.51769267 10.7791546,8.46399551 C11.3429879,7.76388014 11.3704468,6.77360782 10.8462765,6.04332358 L10.4293986,5.46642827 C9.42669208,4.08910704 8.7175032,3.19597204 8.24229283,2.72646239 C7.23618917,1.73242815 5.4925235,1.78389067 4.53698851,2.72557174 Z"/>
</svg>

<svg xmlns="http://www.w3.org/2000/svg" viewBox="0 0 24 24">
  <path d="m4.54 2.73-.7.7-.47.46c-2.88 2.88-1 8.84 3.46 13.3 4.46 4.45 10.41 6.33 13.31 3.43l.43-.42.73-.74a2.7 2.7 0 0 0-.01-3.68l-.18-.17a33.72 33.72 0 0 0-3.14-2.44 2 2 0 0 0-2.43.06l-.11.1-.25.24-1.06 1.05-.39-.13a7.9 7.9 0 0 1-2.42-1.79 7.91 7.91 0 0 1-1.78-2.42l-.11-.3c-.03-.07-.03-.08-.02-.08l1.02-1.05c.18-.18.32-.33.36-.39a2 2 0 0 0 .07-2.42l-.42-.57c-1-1.38-1.71-2.27-2.19-2.74-1-1-2.75-.95-3.7 0z"/>
</svg>
